X: 30
T: Ye Banks And Braes
C:Traditional
B: songs
B: traditional songs
B: tunes
M:3/4
L:1/8
R: waltz
Q: 1/4=100
K:G
V:1 
D2|"G" G4 G2|"D" (A3 G) A2|"Bm" (B2 d2) B2|"D" (A2 G2) A2|"G" (B3 A) G2|"C" (G E3) D2|"G" (D3 E) G2|"D" A4|
(BA)|"G" G4 G2|"D" (A3 G) A2|"Bm" (B2 d2) B2|"D" (A2 G2) A2|"G" (B3 A) G2|"C" (G E3) D2|"G" (D3 E) G2|"G" G4|
B2|"G" d4 e2|"G" (d2 B2) G2|"G" d4 e2|"G" (d2 B2) G2|"G" (d2 B2) G2|"G" (d2 B2) G2|"Am" (e3 d) cB|"D" A4|
(BA)|"G" G4 G2|"D" (A3 G) A2|"Bm" (B2 d2) B2|"D" (A2 G2) A2|"G" (B3 A) G2|"C" (G E3) D2|"G" (D3 E) G2|"G" !fermata!G4|]
V:2 
(G,A,)|(B,3 C) D2|(D3 E) F2|G4 (FE)|D4 (EF)|(G3 D) B,2|C4 (G,A,)|B,4 (DE)|D4|
(G,A,)|(B,3 C) D2|(D3 E) F2|G4 (FE)|D4 (EF)|(G3 D) B,2|C4 (G,A,)|B,4 (DC)|B,4|
D2|(G3 A) B2|G4 D2|(G3 A) B2|(G2 D2) B,2|D4 (EF)|G4 D2|(A3 G F)E|D4|
(G,A,)|(B,3 C) D2|(D3 E) F2|G4 (FE)|D4 (EF)|(G3 D) B,2|C4 (G,A,)|B,4 (DE)|!fermata![B,G]4|]
W: Ye banks and braes o' bonnie Doon,
W: How can ye bloom sae fresh and fair?
W: How can ye chant, ye little birds,
W: And I sae weary, fu' o' care!
W: 
W: Thou'll break my heart, thou warbling bird,
W: That wantons thro' the flowering thorn:
W: Thou minds me o' departed joys,
W: Departed never to return.
W: 
W: Aft hae I rov'd by bonnie Doon,
W: To see the rose and woodbine twine:
W: And ilka bird sang o' its Luve,
W: And fondly sae did I o' mine.
W: 
W: Wi' lightsome heart I pu'd a rose,
W: Fu' sweet upon its thorny tree!
W: But may fause Luver staw my rose,
W: And ah! She left the thorn wi' me.
% abcbook-tune_id 62828a3a163691ed5f15fa4c
% abcbook-tune_composer_id 
% abcbook-link-0 https://www.youtube.com/watch?v=qnTLR54Coz8
% abcbook-link-title-0 Ye Banks and Braes - Holly Tomas
% abcbook-boost 17
% abcbook-difficulty 7
% abcbook-tags begged borrowed and stolen,traditional songs,© free,steve ryan
% abcbook-tablature 
% abcbook-transpose 
% abcbook-tuning 
% abcbook-lastupdated 1676944412905
% abcbook-soundfonts 
% abcbook-repeats 3
% abc-sessionorg_id 6718
% abc-sessionorg_setting 0
% abc-sessionorg_setting_id 6718
% abc-boost 1

